src/icons/repo-pull.svg

<svg width="16" height="16" viewBox="0 0 16 16" fill="none" xmlns="http://www.w3.org/2000/svg">
<path fill-rule="evenodd" clip-rule="evenodd" d="M13 1.5V3H12V2H3V10H13V13.5L12.5 14H7.99997V13H12V11H3H2.73997H2.73548C2.63723 11.0003 2.54006 11.0207 2.44997 11.06C2.26893 11.1351 2.12507 11.279 2.04997 11.46C2.01802 11.5534 2.00114 11.6513 1.99997 11.75V12.25C2.00114 12.3487 2.01802 12.4466 2.04997 12.54C2.12507 12.721 2.26893 12.8649 2.44997 12.94C2.54144 12.9799 2.64019 13.0003 2.73997 13H2.99997V14H2.73997C2.51062 13.9975 2.28363 13.9534 2.06997 13.87C1.64453 13.6883 1.30712 13.3473 1.12997 12.92C1.04179 12.7078 0.997567 12.4798 0.999971 12.25V2.75C1.00408 2.53701 1.04817 2.3267 1.12997 2.13C1.21219 1.90913 1.33769 1.7069 1.4991 1.53518C1.66052 1.36346 1.8546 1.22571 2.06997 1.13C2.28363 1.04658 2.51062 1.00254 2.73997 1H12.5L13 1.5ZM2 10.17V2.74777L1.99997 2.75V10.17L2 10.17ZM5 3H4V4H5V3ZM5 5H4V6H5V5ZM4 7H5V8H4V7ZM12.07 3.39001L11.37 4.10001L13.29 6.02001H7V7.02001H13.39L11.37 9.05001L12.07 9.75001L14.9 6.93001V6.22001L12.07 3.39001ZM5.5 13.49L4.28 15H4V12H7V15H6.72L5.5 13.49Z" fill="white"/>
</svg>

<svg width="16" height="16" xmlns="http://www.w3.org/2000/svg"><path fill-rule="evenodd" clip-rule="evenodd" d="M13 1.5V3h-1V2H3v8h10v3.5l-.5.5H8v-1h4v-2H2.735a.72.72 0 0 0-.285.06.74.74 0 0 0-.4.4.93.93 0 0 0-.05.29v.5a.93.93 0 0 0 .05.29.74.74 0 0 0 .4.4c.091.04.19.06.29.06H3v1h-.26a1.9 1.9 0 0 1-.67-.13 1.77 1.77 0 0 1-.94-.95 1.7 1.7 0 0 1-.13-.67v-9.5a1.7 1.7 0 0 1 .13-.62 1.77 1.77 0 0 1 .94-1A1.9 1.9 0 0 1 2.74 1h9.76l.5.5zM2 10.17V2.748v7.422zM5 3H4v1h1V3zm0 2H4v1h1V5zM4 7h1v1H4V7zm8.07-3.61l-.7.71 1.92 1.92H7v1h6.39l-2.02 2.03.7.7 2.83-2.82v-.71l-2.83-2.83zM5.5 13.49L4.28 15H4v-3h3v3h-.28L5.5 13.49z"/></svg>
